assets/webflow-icon.svg

<svg fill="none" height="41" viewBox="0 0 41 41" width="41" xmlns="http://www.w3.org/2000/svg"><rect fill="#131117" height="40" rx="20" width="40" x=".5" y=".5"/><path d="m25.3348 17.6328s-1.6216 5.0865-1.7537 5.5064c-.0481-.4319-1.2373-9.5613-1.2373-9.5613-2.7627 0-4.2402 1.9674-5.021 4.0429 0 0-1.9699 5.0985-2.1381 5.5304-.012-.3959-.3003-5.4705-.3003-5.4705-.1682-2.5433-2.4985-4.0908-4.3844-4.0908l2.2823 13.8321c2.8949-.012 4.4564-1.9674 5.2733-4.0428 0 0 1.7417-4.4988 1.8138-4.7027.012.1919 1.2492 8.7455 1.2492 8.7455 2.9069 0 4.4685-1.8354 5.3093-3.8389l4.0721-9.9932c-2.8709 0-4.3844 1.9554-5.1652 4.0429z" fill="#f5f5f5"/></svg>

<svg width="41" height="41" viewBox="0 0 41 41" fill="none" xmlns="http://www.w3.org/2000/svg">
<rect x="0.5" y="0.5" width="40" height="40" rx="20" fill="#131117"/>
<path d="M25.3348 17.6328C25.3348 17.6328 23.7132 22.7193 23.5811 23.1392C23.533 22.7073 22.3438 13.5779 22.3438 13.5779C19.5811 13.5779 18.1036 15.5453 17.3228 17.6208C17.3228 17.6208 15.3529 22.7193 15.1847 23.1512C15.1727 22.7553 14.8844 17.6807 14.8844 17.6807C14.7162 15.1374 12.3859 13.5899 10.5 13.5899L12.7823 27.422C15.6772 27.41 17.2387 25.4546 18.0556 23.3792C18.0556 23.3792 19.7973 18.8804 19.8694 18.6765C19.8814 18.8684 21.1186 27.422 21.1186 27.422C24.0255 27.422 25.5871 25.5866 26.4279 23.5831L30.5 13.5899C27.6291 13.5899 26.1156 15.5453 25.3348 17.6328Z" fill="#F5F5F5"/>
</svg>
